en/_assets/tracker/changelogs/status-4-solved.svg

<svg width="77" height="20" viewBox="0 0 77 20" fill="none" xmlns="http://www.w3.org/2000/svg">
<rect width="77" height="20" rx="5" fill="#3FC92E" fill-opacity="0.1"/>
<path fill-rule="evenodd" clip-rule="evenodd" d="M17.5 10C17.5 13.0376 15.0376 15.5 12 15.5C8.96243 15.5 6.5 13.0376 6.5 10C6.5 6.96243 8.96243 4.5 12 4.5C15.0376 4.5 17.5 6.96243 17.5 10ZM19 10C19 13.866 15.866 17 12 17C8.13401 17 5 13.866 5 10C5 6.13401 8.13401 3 12 3C15.866 3 19 6.13401 19 10ZM15.1 8.45C15.3485 8.11863 15.2814 7.64853 14.95 7.4C14.6186 7.15147 14.1485 7.21863 13.9 7.55L11.4189 10.8582L10.0303 9.46967C9.73744 9.17678 9.26256 9.17678 8.96967 9.46967C8.67678 9.76256 8.67678 10.2374 8.96967 10.5303L10.9697 12.5303C11.1234 12.6841 11.3363 12.7635 11.5532 12.7481C11.77 12.7327 11.9695 12.6239 12.1 12.45L15.1 8.45Z" fill="#07A300"/>
<path d="M26.6229 9.736V8.696H27.9359C28.5859 8.696 29.0799 8.55733 29.4179 8.28C29.7559 7.994 29.9249 7.604 29.9249 7.11C29.9249 6.58133 29.7472 6.20867 29.3919 5.992C29.0366 5.76667 28.5686 5.654 27.9879 5.654C27.3899 5.654 26.8526 5.719 26.3759 5.849C25.8992 5.979 25.4789 6.13933 25.1149 6.33V5.173C25.4009 5.02567 25.7736 4.887 26.2329 4.757C26.7009 4.627 27.2902 4.562 28.0009 4.562C28.9716 4.562 29.7429 4.76567 30.3149 5.173C30.8869 5.57167 31.1729 6.19133 31.1729 7.032C31.1729 7.578 31.0082 8.02867 30.6789 8.384C30.3582 8.73933 29.8859 8.99067 29.2619 9.138C29.9986 9.23333 30.5532 9.45867 30.9259 9.814C31.3072 10.1607 31.4979 10.659 31.4979 11.309C31.4979 11.803 31.4026 12.232 31.2119 12.596C31.0212 12.9513 30.7612 13.2417 30.4319 13.467C30.1112 13.6923 29.7299 13.8613 29.2879 13.974C28.8459 14.078 28.3779 14.13 27.8839 14.13C27.1819 14.13 26.5796 14.0477 26.0769 13.883C25.5742 13.7097 25.2059 13.5233 24.9719 13.324V12.154C25.7779 12.7347 26.7356 13.025 27.8449 13.025C28.1656 13.025 28.4689 12.999 28.7549 12.947C29.0409 12.8863 29.2922 12.791 29.5089 12.661C29.7256 12.531 29.8946 12.3577 30.0159 12.141C30.1459 11.9243 30.2109 11.6557 30.2109 11.335C30.2109 10.7457 30.0202 10.334 29.6389 10.1C29.2662 9.85733 28.7072 9.736 27.9619 9.736H26.6229ZM37.055 12.713C36.977 12.869 36.8773 13.0337 36.756 13.207C36.6347 13.3717 36.483 13.5233 36.301 13.662C36.119 13.8007 35.9023 13.9133 35.651 14C35.4083 14.0867 35.1223 14.13 34.793 14.13C34.1863 14.13 33.6967 13.961 33.324 13.623C32.9513 13.2763 32.765 12.7823 32.765 12.141C32.765 11.4043 33.0207 10.8627 33.532 10.516C34.052 10.1693 34.7887 9.996 35.742 9.996H37.003V9.437C37.003 8.969 36.8817 8.63533 36.639 8.436C36.3963 8.23667 35.9803 8.137 35.391 8.137C34.975 8.137 34.5807 8.20633 34.208 8.345C33.8353 8.475 33.5017 8.62667 33.207 8.8V7.773C33.4497 7.62567 33.7747 7.48267 34.182 7.344C34.598 7.19667 35.053 7.123 35.547 7.123C36.3963 7.123 37.042 7.30067 37.484 7.656C37.926 8.00267 38.147 8.54433 38.147 9.281V12.908C38.147 12.986 38.147 13.077 38.147 13.181C38.1557 13.2763 38.16 13.376 38.16 13.48C38.1687 13.584 38.1773 13.6837 38.186 13.779C38.1947 13.8657 38.2033 13.9393 38.212 14H37.172C37.146 13.8787 37.12 13.7097 37.094 13.493C37.0767 13.2677 37.068 13.0727 37.068 12.908L37.055 12.713ZM35.04 13.103C35.3953 13.103 35.6987 13.0293 35.95 12.882C36.2013 12.7347 36.405 12.5657 36.561 12.375C36.717 12.1757 36.8297 11.985 36.899 11.803C36.9683 11.6123 37.003 11.478 37.003 11.4V10.906H35.859C35.1743 10.906 34.676 11.0057 34.364 11.205C34.0607 11.3957 33.909 11.686 33.909 12.076C33.909 12.3793 34 12.6263 34.182 12.817C34.364 13.0077 34.65 13.103 35.04 13.103ZM41.6878 11.127H41.0898V14H39.9458V7.253H41.0898V10.152H41.7398L44.1058 7.253H45.4058L42.6368 10.581L45.4578 14H44.0668L41.6878 11.127ZM50.0546 14.13C49.5346 14.13 49.0839 14.0087 48.7026 13.766C48.3299 13.5233 48.0309 13.1897 47.8056 12.765V16.301H46.6616V7.253H47.6626L47.7796 8.566C48.0049 8.124 48.3083 7.773 48.6896 7.513C49.0709 7.253 49.5433 7.123 50.1066 7.123C50.4966 7.123 50.8693 7.19667 51.2246 7.344C51.5886 7.48267 51.9049 7.69933 52.1736 7.994C52.4509 8.28 52.6676 8.644 52.8236 9.086C52.9883 9.51933 53.0706 10.0307 53.0706 10.62C53.0706 11.218 52.9883 11.738 52.8236 12.18C52.6589 12.6133 52.4379 12.9773 52.1606 13.272C51.8833 13.558 51.5626 13.7747 51.1986 13.922C50.8346 14.0607 50.4533 14.13 50.0546 14.13ZM49.8856 13.103C50.4836 13.103 50.9646 12.8993 51.3286 12.492C51.7013 12.076 51.8876 11.452 51.8876 10.62C51.8876 9.80533 51.7013 9.19 51.3286 8.774C50.9646 8.34933 50.4836 8.137 49.8856 8.137C49.5909 8.137 49.3136 8.189 49.0536 8.293C48.8023 8.397 48.5813 8.553 48.3906 8.761C48.2086 8.96033 48.0613 9.216 47.9486 9.528C47.8446 9.84 47.7926 10.204 47.7926 10.62C47.7926 11.036 47.8446 11.4 47.9486 11.712C48.0613 12.024 48.2086 12.284 48.3906 12.492C48.5813 12.7 48.8023 12.856 49.0536 12.96C49.3136 13.0553 49.5909 13.103 49.8856 13.103ZM59.4485 11.751C59.4485 12.141 59.3792 12.479 59.2405 12.765C59.1018 13.051 58.9068 13.285 58.6555 13.467C58.4042 13.649 58.1052 13.7833 57.7585 13.87C57.4118 13.9567 57.0348 14 56.6275 14H54.4565V7.253H55.6005V9.606H56.7055C57.5635 9.606 58.2352 9.775 58.7205 10.113C59.2058 10.451 59.4485 10.997 59.4485 11.751ZM61.5675 14H60.4235V7.253H61.5675V14ZM55.6005 10.581V13.025H56.6275C57.1215 13.025 57.5202 12.934 57.8235 12.752C58.1355 12.5613 58.2915 12.2493 58.2915 11.816C58.2915 11.374 58.1528 11.0577 57.8755 10.867C57.5982 10.6763 57.2082 10.581 56.7055 10.581H55.6005ZM66.1618 8.228V14H65.0178V8.228H62.8988V7.253H68.3198V8.228H66.1618Z" fill="#07A300"/>
</svg>

<svg xmlns="http://www.w3.org/2000/svg" width="77" height="20" fill="none" viewBox="0 0 77 20">
    <rect width="77" height="20" fill="#3FC92E" fill-opacity=".1" rx="5"/>
    <path fill="#07A300" fill-rule="evenodd" d="M17.5 10a5.5 5.5 0 1 1-11 0 5.5 5.5 0 0 1 11 0Zm1.5 0a7 7 0 1 1-14 0 7 7 0 0 1 14 0Zm-3.9-1.55a.75.75 0 1 0-1.2-.9l-2.481 3.308L10.03 9.47a.75.75 0 1 0-1.06 1.06l2 2a.75.75 0 0 0 1.13-.08l3-4Z" clip-rule="evenodd"/>
    <path fill="#07A300" d="M26.623 9.736v-1.04h1.313c.65 0 1.144-.139 1.482-.416.338-.286.507-.676.507-1.17 0-.529-.178-.901-.533-1.118-.355-.225-.823-.338-1.404-.338a6.132 6.132 0 0 0-2.873.676V5.173a6.14 6.14 0 0 1 1.118-.416c.468-.13 1.057-.195 1.768-.195.97 0 1.742.204 2.314.611.572.399.858 1.018.858 1.859 0 .546-.165.997-.494 1.352-.32.355-.793.607-1.417.754.737.095 1.291.32 1.664.676.381.347.572.845.572 1.495 0 .494-.095.923-.286 1.287-.19.355-.45.646-.78.871a3.46 3.46 0 0 1-1.144.507c-.442.104-.91.156-1.404.156-.702 0-1.304-.082-1.807-.247-.503-.173-.871-.36-1.105-.559v-1.17c.806.58 1.764.871 2.873.871.32 0 .624-.026.91-.078.286-.06.537-.156.754-.286.217-.13.386-.303.507-.52.13-.217.195-.485.195-.806 0-.59-.19-1.001-.572-1.235-.373-.243-.932-.364-1.677-.364h-1.34Zm10.432 2.977c-.078.156-.178.32-.299.494a2.26 2.26 0 0 1-1.105.793c-.243.087-.529.13-.858.13-.607 0-1.096-.169-1.469-.507-.373-.347-.559-.84-.559-1.482 0-.737.256-1.278.767-1.625.52-.347 1.257-.52 2.21-.52h1.261v-.559c0-.468-.121-.802-.364-1.001-.243-.2-.659-.299-1.248-.299-.416 0-.81.07-1.183.208-.373.13-.706.282-1.001.455V7.773c.243-.147.568-.29.975-.429a4.063 4.063 0 0 1 1.365-.221c.85 0 1.495.178 1.937.533.442.347.663.888.663 1.625v3.9c.009.095.013.195.013.299l.026.299c.009.087.017.16.026.221h-1.04a5.934 5.934 0 0 1-.078-.507 7.787 7.787 0 0 1-.026-.585l-.013-.195Zm-2.015.39c.355 0 .659-.074.91-.221.251-.147.455-.316.611-.507.156-.2.269-.39.338-.572.07-.19.104-.325.104-.403v-.494h-1.144c-.685 0-1.183.1-1.495.299-.303.19-.455.481-.455.871 0 .303.091.55.273.741.182.19.468.286.858.286Zm6.648-1.976h-.598V14h-1.144V7.253h1.144v2.899h.65l2.366-2.899h1.3l-2.77 3.328L45.459 14h-1.391l-2.38-2.873Zm8.367 3.003c-.52 0-.971-.121-1.352-.364a2.647 2.647 0 0 1-.897-1.001v3.536h-1.144V7.253h1l.118 1.313c.225-.442.528-.793.91-1.053.38-.26.853-.39 1.417-.39.39 0 .762.074 1.118.221.364.139.68.355.949.65.277.286.494.65.65 1.092.164.433.247.945.247 1.534 0 .598-.083 1.118-.247 1.56a3.262 3.262 0 0 1-.663 1.092 2.78 2.78 0 0 1-.962.65 3.185 3.185 0 0 1-1.144.208Zm-.17-1.027c.599 0 1.08-.204 1.444-.611.372-.416.559-1.04.559-1.872 0-.815-.187-1.43-.56-1.846-.363-.425-.844-.637-1.442-.637a2.22 2.22 0 0 0-.832.156c-.252.104-.473.26-.663.468-.182.2-.33.455-.442.767a3.457 3.457 0 0 0-.156 1.092c0 .416.052.78.156 1.092.112.312.26.572.442.78.19.208.411.364.663.468.26.095.537.143.832.143Zm9.564-1.352c0 .39-.07.728-.209 1.014a1.84 1.84 0 0 1-.584.702c-.252.182-.55.316-.898.403a4.63 4.63 0 0 1-1.13.13h-2.172V7.253H55.6v2.353h1.105c.858 0 1.53.169 2.016.507.485.338.728.884.728 1.638ZM61.568 14h-1.145V7.253h1.145V14ZM55.6 10.581v2.444h1.027c.494 0 .893-.091 1.197-.273.312-.19.468-.503.468-.936 0-.442-.14-.758-.416-.949-.278-.19-.668-.286-1.17-.286H55.6Zm10.562-2.353V14h-1.144V8.228h-2.12v-.975h5.422v.975h-2.158Z"/>
</svg>
